X: 147
T:Lady Anne Gordon's Reel
B:William Marshall A Collection Of Strathspey Reels (1781)
C:William Marshall
L:1/8
M:C|
O:Scotland
R:Reel
Z:Clark Bernst + Richard Robinson
%%Page:12 - 3
F:http://richardrobinson.tunebook.org.uk/tune/3990
%%TBL:{"version":1,"type":"tune","id":"3990"}
K:D
%%taves {1 2}
V:1
(B | \
AD)!trill!FD EB,B,(B | AD)!trill!FD d2 (df) | gfed eBBd | !trill!FD F/G/A d2 d ::
f |\
dg (f/g/a) (be)ef | dg (f/g/a) (fd)e(c | d).BAF EFGB |FD F/G/A d2 d |]
V:2 middle=d clef=bass
L:1/4
z/ | ddee | dddd | dfeg | dAd3/ :: \
z/ | ddee | dddd | dfeg | dAd3/ |]

